Dominus_Funeral/22/mimes/text-x-copying.svg

<svg xmlns="http://www.w3.org/2000/svg" width="24" height="24" version="1"><defs><linearGradient id="a"><stop offset="0"/><stop offset="1" stop-opacity="0"/></linearGradient></defs><path d="M11.988 1.093A10.919 10.919 0 0 0 1.105 11.988a10.919 10.919 0 0 0 10.87 10.919 10.919 10.919 0 0 0 10.92-10.92A10.919 10.919 0 0 0 11.988 1.094zm0 2.327a8.556 8.556 0 0 1 8.604 8.556 8.556 8.556 0 0 1-8.604 8.604 8.556 8.556 0 0 1-8.556-8.604 8.556 8.556 0 0 1 8.556-8.556zm0 2.315a6.241 6.241 0 0 0-4.436 1.914l2.012 1.285a3.914 3.914 0 0 1 2.424-.824 3.914 3.914 0 0 1 3.914 3.866 3.914 3.914 0 0 1-3.914 3.914 3.914 3.914 0 0 1-2.424-.872L7.552 16.35a6.241 6.241 0 0 0 4.436 1.854 6.241 6.241 0 0 0 6.229-6.18 6.241 6.241 0 0 0-6.18-6.29z" fill="#1a1a1a"/></svg>

<?xml version="1.0" encoding="UTF-8" standalone="no"?>
<svg
   xmlns:dc="http://purl.org/dc/elements/1.1/"
   xmlns:cc="http://creativecommons.org/ns#"
   xmlns:rdf="http://www.w3.org/1999/02/22-rdf-syntax-ns#"
   xmlns:svg="http://www.w3.org/2000/svg"
   xmlns="http://www.w3.org/2000/svg"
   xmlns:sodipodi="http://sodipodi.sourceforge.net/DTD/sodipodi-0.dtd"
   xmlns:inkscape="http://www.inkscape.org/namespaces/inkscape"
   width="24"
   height="24"
   version="1"
   id="svg11"
   sodipodi:docname="text-x-copying.svg"
   inkscape:version="0.92.4 (5da689c313, 2019-01-14)">
  <metadata
     id="metadata15">
    <rdf:RDF>
      <cc:Work
         rdf:about="">
        <dc:format>image/svg+xml</dc:format>
        <dc:type
           rdf:resource="http://purl.org/dc/dcmitype/StillImage" />
        <dc:title></dc:title>
      </cc:Work>
    </rdf:RDF>
  </metadata>
  <sodipodi:namedview
     pagecolor="#ffffff"
     bordercolor="#666666"
     borderopacity="1"
     objecttolerance="10"
     gridtolerance="10"
     guidetolerance="10"
     inkscape:pageopacity="0"
     inkscape:pageshadow="2"
     inkscape:window-width="1112"
     inkscape:window-height="480"
     id="namedview13"
     showgrid="false"
     inkscape:zoom="9.8333333"
     inkscape:cx="1.0677966"
     inkscape:cy="12"
     inkscape:window-x="0"
     inkscape:window-y="25"
     inkscape:window-maximized="0"
     inkscape:current-layer="svg11" />
  <defs
     id="defs7">
    <linearGradient
       id="a">
      <stop
         offset="0"
         id="stop2" />
      <stop
         offset="1"
         stop-opacity="0"
         id="stop4" />
    </linearGradient>
  </defs>
  <path
     d="M 11.988,1.093 A 10.919,10.919 0 0 0 1.105,11.988 10.919,10.919 0 0 0 11.975,22.907 10.919,10.919 0 0 0 22.895,11.987 10.919,10.919 0 0 0 11.988,1.094 Z m 0,2.327 a 8.556,8.556 0 0 1 8.604,8.556 8.556,8.556 0 0 1 -8.604,8.604 8.556,8.556 0 0 1 -8.556,-8.604 8.556,8.556 0 0 1 8.556,-8.556 z m 0,2.315 A 6.241,6.241 0 0 0 7.552,7.649 L 9.564,8.934 A 3.914,3.914 0 0 1 11.988,8.11 3.914,3.914 0 0 1 15.902,11.976 3.914,3.914 0 0 1 11.988,15.89 3.914,3.914 0 0 1 9.564,15.018 L 7.552,16.35 a 6.241,6.241 0 0 0 4.436,1.854 6.241,6.241 0 0 0 6.229,-6.18 6.241,6.241 0 0 0 -6.18,-6.29 z"
     id="path9"
     inkscape:connector-curvature="0"
     style="fill:#1a1a1a" />
</svg>
